X: 24
T:Money Musk. TLY.023
M:2/2
L:1/8
Q:180
S:Wm.Tildesley,Swinton,Lancs.1860s.
R:Reel
O:England.
A:Lancashire.
H:1860.
Z:vmp.Taz Tarry.
K:D
b|a>df>d a>dg>b|a>df>d ef/2e/2 g>b|\
a>df>d f>g a>d'|b>ge>g f>d d:|!
|:b/d'/|d'>af>d' a>d'f>d'|d'>af>d' f>d'e>d'|\
d'>ab>d' a>d'f>a|b>ge>a f>dd:|]
